X:105
T:The Spanish Lady
T:+ a queer tune. what are the words
Z:Jack Campin - http://www.campin.me.uk
S:Blaikie MS (NLS MS.1578) p31, Blaikie #99
M:3/4
L:1/8
V:1 midi program 1 74
V:2 midi program 1 46 bass middle = d transpose -24
N:last note in bass undotted in MS
Q:1/4=100
K:G
[V:1] G|GE  D2 GG|Ac Bc dB|AF D2 GG|AF G3:|
[V:2] z|gc' b2 g2|fa ga bg|f2 d2 B2|cd g3:|
%
[V:1] [M:C|] D|GABd cBAG|c2e2  d2zD|GABd cBAc|B2A2 G3|]
[V:2] [M:C|] z|g2g2 g2g2|c2c'2 b2g2|g2g2 f2d2|g2d2 G3|]
W:Transcription (c) Jack Campin 2009, no mirroring or republication without permission

